svg/business/currency_nigeria_fill.svg

<svg xmlns="http://www.w3.org/2000/svg" width="24" height="24" viewBox="0 0 24 24"><g fill="none"><path d="M24,0 L24,24 L0,24 L0,0 L24,0 Z M12.5935,23.2578 L12.5819,23.2595 L12.5109,23.295 L12.4919,23.2987 L12.4767,23.295 L12.4057,23.2595 C12.3958,23.2564 12.387,23.259 12.3821,23.2649 L12.378,23.2758 L12.3609,23.7031 L12.3659,23.7235 L12.3769,23.7357 L12.4805,23.8097 L12.4953,23.8136 L12.5071,23.8097 L12.6107,23.7357 L12.6233,23.7197 L12.6267,23.7031 L12.6096,23.2758 C12.6076,23.2657 12.601,23.2593 12.5935,23.2578 Z M12.8584,23.1453 L12.8445,23.1473 L12.6598,23.2397 L12.6499,23.2499 L12.6472,23.2611 L12.6651,23.6906 L12.6699,23.7034 L12.6784,23.7105 L12.8793,23.8032 C12.8914,23.8069 12.9022,23.803 12.9078,23.7952 L12.9118,23.7812 L12.8777,23.1665 C12.8753,23.1546 12.8674,23.147 12.8584,23.1453 Z M12.143,23.1473 C12.1332,23.1424 12.1222,23.1453 12.1156,23.1526 L12.1099,23.1665 L12.0758,23.7812 C12.0751,23.7927 12.0828,23.8019 12.0926,23.8046 L12.1083,23.8032 L12.3092,23.7105 L12.3186,23.7024 L12.3225,23.6906 L12.3404,23.2611 L12.3372,23.2485 L12.3278,23.2397 L12.143,23.1473 Z"/><path fill="#09244B" d="M12,2 C17.5228,2 22,6.47715 22,12 C22,17.5228 17.5228,22 12,22 C6.47715,22 2,17.5228 2,12 C2,6.47715 6.47715,2 12,2 Z M10,6 L9.5,6 C8.94772,6 8.5,6.44772 8.5,7 L8.5,10 L8,10 C7.44772,10 7,10.4477 7,11 C7,11.5523 7.44772,12 8,12 L8.5,12 L8.5,13 L8,13 C7.44772,13 7,13.4477 7,14 C7,14.5523 7.44772,15 8,15 L8.5,15 L8.5,17 C8.5,17.5523 8.94772,18 9.5,18 C10.0523,18 10.5,17.5523 10.5,17 L10.5,15 L12.123,15 L13.0715,17.3714 C13.2234,17.751 13.5911,18 14,18 L14.5,18 C15.0523,18 15.5,17.5523 15.5,17 L15.5,15 L16,15 C16.5523,15 17,14.5523 17,14 C17,13.4477 16.5523,13 16,13 L15.5,13 L15.5,12 L16,12 C16.5523,12 17,11.5523 17,11 C17,10.4477 16.5523,10 16,10 L15.5,10 L15.5,7 C15.5,6.44772 15.0523,6 14.5,6 C13.9477,6 13.5,6.44772 13.5,7 L13.5,10 L12.277,10 L10.9285,6.62861 C10.7766,6.24895 10.4089,6 10,6 Z M13.5,12 L13.5,13 L13.477,13 L13.077,12 L13.5,12 Z M10.923,12 L11.323,13 L10.5,13 L10.5,12 L10.923,12 Z"/></g></svg>

<svg xmlns="http://www.w3.org/2000/svg" width="24" height="24"><g fill="none"><path d="M24 0v24H0V0zM12.594 23.258l-.012.002-.071.035-.02.004-.014-.004-.071-.036c-.01-.003-.019 0-.024.006l-.004.01-.017.428.005.02.01.013.104.074.015.004.012-.004.104-.074.012-.016.004-.017-.017-.427c-.002-.01-.009-.017-.016-.018m.264-.113-.014.002-.184.093-.01.01-.003.011.018.43.005.012.008.008.201.092c.012.004.023 0 .029-.008l.004-.014-.034-.614c-.003-.012-.01-.02-.02-.022m-.715.002a.023.023 0 0 0-.027.006l-.006.014-.034.614c0 .012.007.02.017.024l.015-.002.201-.093.01-.008.003-.011.018-.43-.003-.012-.01-.01z"/><path fill="#09244B" d="M12 2c5.523 0 10 4.477 10 10s-4.477 10-10 10S2 17.523 2 12 6.477 2 12 2m-2 4h-.5a1 1 0 0 0-1 1v3H8a1 1 0 1 0 0 2h.5v1H8a1 1 0 1 0 0 2h.5v2a1 1 0 1 0 2 0v-2h1.623l.949 2.371A1 1 0 0 0 14 18h.5a1 1 0 0 0 1-1v-2h.5a1 1 0 1 0 0-2h-.5v-1h.5a1 1 0 1 0 0-2h-.5V7a1 1 0 1 0-2 0v3h-1.223l-1.348-3.371A1 1 0 0 0 10 6m3.5 6v1h-.023l-.4-1zm-2.577 0 .4 1H10.5v-1z"/></g></svg>
